X:250
T:Reel 250
M:4/4
K:Gmaj
L:1/8
 (3def |g>G (3BGB B>d (3dff |g>c' (3fgb a2ab|c'>a (3abc' d'>c' (3c'e'c' |agfe dgef|g>c (3BAG B>d (3def |g2fg dgfg|e>c (3dBd e>d (3cBA |g2bf g2:|gag|b>c' (3d'c'd' e'>g (3gfg |a2ab c'>a (3aga |gbc'd' e'>d' (3bc'd' bg| (3aba  (3fga e2e>d| (3efg f>g  (3gfg d>g (3gfg |d>g (3gfg a2 (3c'ba |gbd'b c'e'd'c'| (3bc'd' af g2|
